logo/dark.svg

{\rtf1\ansi\ansicpg1252\cocoartf2821
\cocoatextscaling0\cocoaplatform0{\fonttbl\f0\fswiss\fcharset0 Helvetica;}
{\colortbl;\red255\green255\blue255;}
{\*\expandedcolortbl;;}
\paperw11900\paperh16840\margl1440\margr1440\vieww11520\viewh8400\viewkind0
\pard\tx720\tx1440\tx2160\tx2880\tx3600\tx4320\tx5040\tx5760\tx6480\tx7200\tx7920\tx8640\pardirnatural\partightenfactor0

\f0\fs24 \cf0 <svg width="200" height="54" viewBox="0 0 200 54" fill="none" xmlns="http://www.w3.org/2000/svg">\
<path d="M192.602 10.1357H199.999L198.094 21.2617H190.754L187.806 39.0186C187.73 39.6026 187.756 40.0985 187.883 40.5049C188.01 40.9109 188.264 41.2158 188.645 41.4189C189.051 41.5966 189.585 41.6855 190.245 41.6855C190.702 41.7109 191.248 41.66 191.883 41.5332C192.543 41.4063 193.039 41.3047 193.369 41.2285L193.826 52.0498C193.039 52.253 191.984 52.4941 190.664 52.7734C189.369 53.0782 187.857 53.2695 186.13 53.3457C182.574 53.5235 179.678 53.1545 177.442 52.2402C175.207 51.3004 173.657 49.8396 172.793 47.8584C171.929 45.8772 171.777 43.4131 172.336 40.4668L175.519 21.2617H170.842L168.637 35.1445C168.018 38.9024 166.581 42.1636 164.326 44.9268C162.071 47.6677 159.219 49.7787 155.771 51.2598C152.322 52.7407 148.475 53.4925 144.231 53.5146C139.988 53.4925 136.384 52.7407 133.422 51.2598C130.482 49.7787 128.349 47.6676 127.022 44.9268C125.98 42.719 125.553 40.1934 125.738 37.3506C124.962 39.4024 123.964 41.306 122.738 43.0576C120.452 46.3343 117.505 48.8996 113.898 50.7539C110.317 52.5828 106.214 53.498 101.591 53.498C96.968 53.4979 93.1575 52.5828 90.1602 50.7539C87.1884 48.8996 85.105 46.3343 83.9111 43.0576C83.3436 41.4879 82.9965 39.7971 82.8652 37.9863C82.0661 40.5131 80.8982 42.789 79.3545 44.8105C77.2462 47.5793 74.5404 49.7259 71.2383 51.25C67.9615 52.7486 64.2137 53.498 59.9971 53.498C55.3742 53.4979 51.5637 52.5828 48.5664 50.7539C45.5947 48.8996 43.5112 46.3343 42.3174 43.0576C41.9987 42.176 41.7514 41.2555 41.5703 40.2979C40.9834 42.8771 39.7535 45.1188 37.875 47.0205C35.8175 49.1034 33.2132 50.7036 30.0635 51.8213C26.9137 52.9389 23.4332 53.498 19.623 53.498C12.9171 53.498 7.89989 52.1642 4.57227 49.4971C1.2448 46.8045 -0.266634 43.3114 0.0380859 39.0186H0.46875L0.24707 38.7871H26.0332C25.9015 38.543 25.6837 38.3397 25.377 38.1797C24.7926 37.8495 23.687 37.5196 22.0615 37.1895L14.7461 35.8936C10.5295 35.1569 7.45493 33.6455 5.52441 31.3594C3.61956 29.0479 2.95886 26.1136 3.54297 22.5576C4.02559 19.738 5.16922 17.3622 6.97266 15.4316C8.80153 13.5012 11.203 12.0532 14.1748 11.0879C17.1466 10.0974 20.5886 9.6026 24.5 9.60254C30.8756 9.60254 35.7026 10.8848 38.9795 13.4502C42.2248 15.9911 43.5749 19.4665 43.0332 23.876L43.1416 23.9668H43.0234C43.0218 23.9794 43.0202 23.9922 43.0186 24.0049H29.3018C29.3025 23.9922 29.3021 23.9794 29.3027 23.9668H18.625C18.6781 24.2176 18.8199 24.4595 19.0518 24.6914C19.4329 25.0469 20.411 25.3769 21.9854 25.6816L30.3682 27.2061C34.5846 27.9935 37.6583 29.4163 39.5889 31.4736C40.3478 32.2825 40.9177 33.1901 41.2998 34.1953C41.3696 33.3365 41.4793 32.4544 41.6318 31.5498C42.3177 27.1808 43.8038 23.3579 46.0898 20.0811C48.4014 16.7788 51.3608 14.2128 54.9678 12.3838C58.5748 10.5295 62.6904 9.60259 67.3135 9.60254C73.5875 9.60256 78.274 11.2663 81.373 14.5938C83.9528 17.3639 85.1496 20.8996 84.9658 25.2012C85.7019 23.3678 86.6197 21.6606 87.7217 20.0811C90.0078 16.7788 92.9546 14.2128 96.5615 12.3838C100.169 10.5295 104.284 9.60259 108.907 9.60254C113.505 9.60256 117.29 10.5296 120.262 12.3838C123.259 14.2128 125.355 16.7787 126.549 20.0811C127.112 21.5947 127.464 23.225 127.609 24.9717L129.975 10.0859H143.788L140.216 33.5996C139.973 35.1248 140.083 36.485 140.547 37.6787C141.033 38.8501 141.818 39.7787 142.901 40.4639C144.006 41.149 144.905 41.4911 146.222 41.4912C147.768 41.4911 148.557 41.1488 149.839 40.4639C151.121 39.7787 152.194 38.85 153.056 37.6787C153.94 36.485 154.504 35.1248 154.747 33.5996L158.803 10.0859H172.617L172.609 10.1357H177.362L179.042 0H194.284L192.602 10.1357ZM104.529 20.1387C102.892 24.3593 99.0249 27.3104 94.5146 27.7803L56.4102 31.748L92.418 33.3906C96.5059 33.5772 99.6005 37.1476 99.1973 41.2119L98.0195 53.0859L102.793 41.6768C104.857 36.7429 109.346 33.236 114.641 32.4209L133.09 29.5811L115.144 28.1025C111.441 27.7974 108.591 24.7092 108.591 21.001V9.66895L104.529 20.1387Z" fill="#19D89F"/>\
</svg>\
}

<svg xmlns="http://www.w3.org/2000/svg" width="200" height="54" fill="none" viewBox="0 0 200 54"><path fill="#19d89f" d="M192.602 10.136h7.397l-1.905 11.126h-7.34l-2.948 17.757q-.114.877.077 1.486.19.608.762.914.61.267 1.6.267.685.038 1.638-.153a45 45 0 0 0 1.486-.305l.457 10.822q-1.181.305-3.162.723-1.943.458-4.534.573-5.334.267-8.688-1.106-3.353-1.41-4.649-4.382t-.457-7.391l3.183-19.205h-4.677l-2.205 13.883q-.929 5.636-4.311 9.782-3.383 4.11-8.555 6.333-5.174 2.221-11.54 2.255-6.365-.034-10.809-2.255-4.41-2.221-6.4-6.333-1.562-3.312-1.284-7.576a25.9 25.9 0 0 1-3 5.707q-3.43 4.915-8.84 7.696-5.372 2.744-12.307 2.744t-11.43-2.744q-4.46-2.782-6.25-7.696-.85-2.354-1.046-5.072-1.197 3.791-3.51 6.825-3.164 4.152-8.117 6.439-4.915 2.248-11.24 2.248-6.936 0-11.432-2.744-4.457-2.782-6.249-7.696a18 18 0 0 1-.747-2.76q-.879 3.87-3.695 6.722-3.087 3.125-7.811 4.801t-10.441 1.677q-10.06 0-15.05-4-4.992-4.04-4.535-10.48h.43l-.22-.23h25.785q-.198-.368-.656-.608-.877-.495-3.315-.99l-7.316-1.296q-6.325-1.105-9.222-4.535-2.856-3.467-1.981-8.801.724-4.23 3.43-7.126 2.744-2.896 7.202-4.344Q18.633 9.603 24.5 9.603q9.564 0 14.48 3.847 4.867 3.812 4.053 10.426l.109.09h-.119l-.004.039H29.302v-.038H18.626q.08.376.427.724.571.534 2.933.99l8.383 1.525q6.325 1.181 9.22 4.268a8.2 8.2 0 0 1 1.712 2.721q.104-1.287.332-2.645 1.029-6.554 4.458-11.469 3.466-4.953 8.878-7.697 5.41-2.781 12.346-2.781 9.41 0 14.059 4.99 3.87 4.156 3.593 10.608a25.6 25.6 0 0 1 2.756-5.12q3.43-4.953 8.84-7.697 5.41-2.781 12.345-2.781 6.897 0 11.355 2.78 4.496 2.745 6.287 7.698.844 2.271 1.06 4.89l2.366-14.885h13.813L140.216 33.6q-.365 2.288.331 4.079a5.9 5.9 0 0 0 2.354 2.785c1.105.685 2.004 1.027 3.321 1.027 1.546 0 2.335-.342 3.617-1.027a9.5 9.5 0 0 0 3.217-2.785q1.326-1.791 1.691-4.08l4.056-23.513h13.814l-.008.05h4.753L179.042 0h15.242zm-88.073 10.003a12.08 12.08 0 0 1-10.014 7.641L56.41 31.748l36.008 1.643c4.088.186 7.182 3.757 6.78 7.82L98.02 53.087l4.773-11.41a15.38 15.38 0 0 1 11.848-9.255l18.449-2.84-17.946-1.479a7.13 7.13 0 0 1-6.553-7.101V9.669z"/></svg>
